X:76
T:Bridge of Garry, The
R:Reel
B:The Athole Collection
M:C|
L:1/8
K:A
a|A/A/A eA cAeA|Bffe fBBa|A/A/A eA cAeA|EFAB cAA:|
g|a2 ea cAec|Bffe fBBg|aeea cAec|EFAB cAA(3e/f/g/|a2 ea cAec|
Bffe fBBg|afbg afed|ceBe cAA||

